X:1
Q:1/4=90
L:1/16
M:4/4
K:C clef=G2
V:1
%%MIDI program 19
F6F2A4G2F2|G8G8|F4A4d4d4|c16|
A6c2f4e4|d8A8|c4A4^A2A2G4|F16|
F6F2A4G2F2|G8G8|F4A4d4d4|c16|
A6c2f4e4|d8A8|c4A4^A2A2G4|F16|
F6F2A4G2F2|G8G8|F4A4d4d4|c16|
A6c2f4e4|d8A8|c4A4^A2A2G4|F16|
F6F2A4G2F2|G8G8|F4A4d4d4|c16|
A6c2f4e4|d8A8|
L:1/16
M:4/4
K:C clef=F4
V:2
%%MIDI program 19
[F,A,A,C]16|[F,^A,D]8[G,CE]8|[F,A,D]8[F,^A,D]8|[F,A,C]8[G,CE]8|
[F,A,C]8[F,A,D]8|[F,^A,D]8[A,CE]8|[F,A,C]8[F,^A,D]4[G,CE]4|[F,A,C]16|
[F,A,A,C]16|[F,^A,D]8[G,CE]8|[F,A,D]8[F,^A,D]8|[F,A,C]8[G,CE]8|
[F,A,C]8[F,A,D]8|[F,^A,D]8[A,CE]8|[F,A,C]8[F,^A,D]4[G,CE]4|[F,A,C]16|
[F,A,A,C]16|[F,^A,D]8[G,CE]8|[F,A,D]8[F,^A,D]8|[F,A,C]8[G,CE]8|
[F,A,C]8[F,A,D]8|[F,^A,D]8[A,CE]8|[F,A,C]8[F,^A,D]4[G,CE]4|[F,A,C]16|
[F,A,A,C]16|[F,^A,D]8[G,CE]8|[F,A,D]8[F,^A,D]8|[F,A,C]8[G,CE]8|
[F,A,C]8[F,A,D]8|[F,^A,D]8[A,CE]8|
L:1/16
M:4/4
K:C clef=G2
V:3
%%MIDI program 56
F4-F3/4zz7/32F3/2z7/16A3-A3/16z7/8G3/2z7/16F3/2z7/16|G6-G3/8zz3/4G6-G3/8zz3/4|F3-F3/16z7/8A3-A3/16z7/8d3-d3/16z7/8d3-d3/16z7/8|c12-c3/4z2zz7/32|
A4-A3/4zz7/32c3/2z7/16f3-f3/16z7/8e3-e3/16z7/8|d6-d3/8zz3/4A6-A3/8zz3/4|c3-c3/16z7/8A3-A3/16z7/8^A3/2z7/16A3/2z7/16G3-G3/16z7/8|F12-F3/4z2zz7/32|
F4-F3/4zz7/32F3/2z7/16A3-A3/16z7/8G3/2z7/16F3/2z7/16|G6-G3/8zz3/4G6-G3/8zz3/4|F3-F3/16z7/8A3-A3/16z7/8d3-d3/16z7/8d3-d3/16z7/8|c12-c3/4z2zz7/32|
A4-A3/4zz7/32c3/2z7/16f3-f3/16z7/8e3-e3/16z7/8|d6-d3/8zz3/4A6-A3/8zz3/4|c3-c3/16z7/8A3-A3/16z7/8^A3/2z7/16A3/2z7/16G3-G3/16z7/8|F12-F3/4z2zz7/32|
F4-F3/4zz7/32F3/2z7/16A3-A3/16z7/8G3/2z7/16F3/2z7/16|G6-G3/8zz3/4G6-G3/8zz3/4|F3-F3/16z7/8A3-A3/16z7/8d3-d3/16z7/8d3-d3/16z7/8|c12-c3/4z2zz7/32|
A4-A3/4zz7/32c3/2z7/16f3-f3/16z7/8e3-e3/16z7/8|d6-d3/8zz3/4A6-A3/8zz3/4|c3-c3/16z7/8A3-A3/16z7/8^A3/2z7/16A3/2z7/16G3-G3/16z7/8|F12-F3/4z2zz7/32|
F4-F3/4zz7/32F3/2z7/16A3-A3/16z7/8G3/2z7/16F3/2z7/16|G6-G3/8zz3/4G6-G3/8zz3/4|F3-F3/16z7/8A3-A3/16z7/8d3-d3/16z7/8d3-d3/16z7/8|c12-c3/4z2zz7/32|
A4-A3/4zz7/32c3/2z7/16f3-f3/16z7/8e3-e3/16z7/8|d6-d3/8zz3/4A6-A3/8zz3/4|
L:1/16
M:4/4
K:C clef=G2
V:4
%%MIDI program 48
F4-F3/4zz7/32F3/2z7/16A3-A3/16z7/8G3/2z7/16F3/2z7/16|G6-G3/8zz3/4G6-G3/8zz3/4|F3-F3/16z7/8A3-A3/16z7/8d3-d3/16z7/8d3-d3/16z7/8|c12-c3/4z2zz7/32|
A4-A3/4zz7/32c3/2z7/16f3-f3/16z7/8e3-e3/16z7/8|d6-d3/8zz3/4A6-A3/8zz3/4|c3-c3/16z7/8A3-A3/16z7/8^A3/2z7/16A3/2z7/16G3-G3/16z7/8|F12-F3/4z2zz7/32|
F4-F3/4zz7/32F3/2z7/16A3-A3/16z7/8G3/2z7/16F3/2z7/16|G6-G3/8zz3/4G6-G3/8zz3/4|F3-F3/16z7/8A3-A3/16z7/8d3-d3/16z7/8d3-d3/16z7/8|c12-c3/4z2zz7/32|
A4-A3/4zz7/32c3/2z7/16f3-f3/16z7/8e3-e3/16z7/8|d6-d3/8zz3/4A6-A3/8zz3/4|c3-c3/16z7/8A3-A3/16z7/8^A3/2z7/16A3/2z7/16G3-G3/16z7/8|F12-F3/4z2zz7/32|
F4-F3/4zz7/32F3/2z7/16A3-A3/16z7/8G3/2z7/16F3/2z7/16|G6-G3/8zz3/4G6-G3/8zz3/4|F3-F3/16z7/8A3-A3/16z7/8d3-d3/16z7/8d3-d3/16z7/8|c12-c3/4z2zz7/32|
A4-A3/4zz7/32c3/2z7/16f3-f3/16z7/8e3-e3/16z7/8|d6-d3/8zz3/4A6-A3/8zz3/4|c3-c3/16z7/8A3-A3/16z7/8^A3/2z7/16A3/2z7/16G3-G3/16z7/8|F12-F3/4z2zz7/32|
F4-F3/4zz7/32F3/2z7/16A3-A3/16z7/8G3/2z7/16F3/2z7/16|G6-G3/8zz3/4G6-G3/8zz3/4|F3-F3/16z7/8A3-A3/16z7/8d3-d3/16z7/8d3-d3/16z7/8|c12-c3/4z2zz7/32|
A4-A3/4zz7/32c3/2z7/16f3-f3/16z7/8e3-e3/16z7/8|d6-d3/8zz3/4A6-A3/8zz3/4|
L:1/16
M:4/4
K:C clef=F4
V:5
%%MIDI program 60
[F,A,A,C]16|[F,^A,D]8[G,CE]8|[F,A,D]8[F,^A,D]8|[F,A,C]8[G,CE]8|
[F,A,C]8[F,A,D]8|[F,^A,D]8[A,CE]8|[F,A,C]8[F,^A,D]4[G,CE]4|[F,A,C]16|
[F,A,A,C]16|[F,^A,D]8[G,CE]8|[F,A,D]8[F,^A,D]8|[F,A,C]8[G,CE]8|
[F,A,C]8[F,A,D]8|[F,^A,D]8[A,CE]8|[F,A,C]8[F,^A,D]4[G,CE]4|[F,A,C]16|
[F,A,A,C]16|[F,^A,D]8[G,CE]8|[F,A,D]8[F,^A,D]8|[F,A,C]8[G,CE]8|
[F,A,C]8[F,A,D]8|[F,^A,D]8[A,CE]8|[F,A,C]8[F,^A,D]4[G,CE]4|[F,A,C]16|
[F,A,A,C]16|[F,^A,D]8[G,CE]8|[F,A,D]8[F,^A,D]8|[F,A,C]8[G,CE]8|
[F,A,C]8[F,A,D]8|[F,^A,D]8[A,CE]8|
L:1/16
M:4/4
K:C clef=G2
V:6
%%MIDI program 49
z/2F4-F3/4zz7/32F3/2z7/16A3-A3/16z7/8G3/2z7/16F3/2-|z7/16G6-G3/8zz3/4G6-G3/8z|z/2F3-F3/16z7/8A3-A3/16z7/8d3-d3/16z7/8d3-d3/16z3/8|z/2c12-c3/4z2z3/4|
z/2A4-A3/4zz7/32c3/2z7/16f3-f3/16z7/8e3-e3/16z3/8|z/2d6-d3/8zz3/4A6-A3/8z|z/2c3-c3/16z7/8A3-A3/16z7/8^A3/2z7/16A3/2z7/16G3-G3/16z3/8|z/2F12-F3/4z2z3/4|
z/2F4-F3/4zz7/32F3/2z7/16A3-A3/16z7/8G3/2z7/16F3/2-|z7/16G6-G3/8zz3/4G6-G3/8z|z/2F3-F3/16z7/8A3-A3/16z7/8d3-d3/16z7/8d3-d3/16z3/8|z/2c12-c3/4z2z3/4|
z/2A4-A3/4zz7/32c3/2z7/16f3-f3/16z7/8e3-e3/16z3/8|z/2d6-d3/8zz3/4A6-A3/8z|z/2c3-c3/16z7/8A3-A3/16z7/8^A3/2z7/16A3/2z7/16G3-G3/16z3/8|z/2F12-F3/4z2z3/4|
z/2F4-F3/4zz7/32F3/2z7/16A3-A3/16z7/8G3/2z7/16F3/2-|z7/16G6-G3/8zz3/4G6-G3/8z|z/2F3-F3/16z7/8A3-A3/16z7/8d3-d3/16z7/8d3-d3/16z3/8|z/2c12-c3/4z2z3/4|
z/2A4-A3/4zz7/32c3/2z7/16f3-f3/16z7/8e3-e3/16z3/8|z/2d6-d3/8zz3/4A6-A3/8z|z/2c3-c3/16z7/8A3-A3/16z7/8^A3/2z7/16A3/2z7/16G3-G3/16z3/8|z/2F12-F3/4z2z3/4|
z/2F4-F3/4zz7/32F3/2z7/16A3-A3/16z7/8G3/2z7/16F3/2-|z7/16G6-G3/8zz3/4G6-G3/8z|z/2F3-F3/16z7/8A3-A3/16z7/8d3-d3/16z7/8d3-d3/16z3/8|z/2c12-c3/4z2z3/4|
z/2A4-A3/4zz7/32c3/2z7/16f3-f3/16z7/8e3-e3/16z3/8|z/2d6-d3/8zz3/4A6-A3/8z|
L:1/16
M:4/4
K:C clef=G2
V:7
%%MIDI program 102
z3/4F4-F3/4zz7/32F3/2z7/16A3-A3/16z7/8G3/2z7/16F-|F7/32z7/16G6-G3/8zz3/4G6-G3/8z31/32|z3/4F3-F3/16z7/8A3-A3/16z7/8d3-d3/16z7/8d3-d3/16z3/16|z3/4c12-c3/4z2z/2|
z3/4A4-A3/4zz7/32c3/2z7/16f3-f3/16z7/8e3-e3/16z3/16|z3/4d6-d3/8zz3/4A6-A3/8z31/32|z3/4c3-c3/16z7/8A3-A3/16z7/8^A3/2z7/16A3/2z7/16G3-G3/16z3/16|z3/4F12-F3/4z2z/2|
z3/4F4-F3/4zz7/32F3/2z7/16A3-A3/16z7/8G3/2z7/16F-|F7/32z7/16G6-G3/8zz3/4G6-G3/8z31/32|z3/4F3-F3/16z7/8A3-A3/16z7/8d3-d3/16z7/8d3-d3/16z3/16|z3/4c12-c3/4z2z/2|
z3/4A4-A3/4zz7/32c3/2z7/16f3-f3/16z7/8e3-e3/16z3/16|z3/4d6-d3/8zz3/4A6-A3/8z31/32|z3/4c3-c3/16z7/8A3-A3/16z7/8^A3/2z7/16A3/2z7/16G3-G3/16z3/16|z3/4F12-F3/4z2z/2|
z3/4F4-F3/4zz7/32F3/2z7/16A3-A3/16z7/8G3/2z7/16F-|F7/32z7/16G6-G3/8zz3/4G6-G3/8z31/32|z3/4F3-F3/16z7/8A3-A3/16z7/8d3-d3/16z7/8d3-d3/16z3/16|z3/4c12-c3/4z2z/2|
z3/4A4-A3/4zz7/32c3/2z7/16f3-f3/16z7/8e3-e3/16z3/16|z3/4d6-d3/8zz3/4A6-A3/8z31/32|z3/4c3-c3/16z7/8A3-A3/16z7/8^A3/2z7/16A3/2z7/16G3-G3/16z3/16|z3/4F12-F3/4z2z/2|
z3/4F4-F3/4zz7/32F3/2z7/16A3-A3/16z7/8G3/2z7/16F-|F7/32z7/16G6-G3/8zz3/4G6-G3/8z31/32|z3/4F3-F3/16z7/8A3-A3/16z7/8d3-d3/16z7/8d3-d3/16z3/16|z3/4c12-c3/4z2z/2|
z3/4A4-A3/4zz7/32c3/2z7/16f3-f3/16z7/8e3-e3/16z3/16|z3/4d6-d3/8zz3/4A6-A3/8z31/32|
L:1/16
M:4/4
K:C clef=G2
V:8
%%MIDI program 52
F6F2A4G2F2|G8G8|F4A4d4d4|c16|
A6c2f4e4|d8A8|c4A4^A2A2G4|F16|
F6F2A4G2F2|G8G8|F4A4d4d4|c16|
A6c2f4e4|d8A8|c4A4^A2A2G4|F16|
F6F2A4G2F2|G8G8|F4A4d4d4|c16|
A6c2f4e4|d8A8|c4A4^A2A2G4|F16|
F6F2A4G2F2|G8G8|F4A4d4d4|c16|
A6c2f4e4|d8A8|
L:1/16
M:4/4
K:C clef=G2
V:9
%%MIDI program 88
F4-F3/4zz7/32F3/2z7/16A3-A3/16z7/8G3/2z7/16F3/2z7/16|G6-G3/8zz3/4G6-G3/8zz3/4|F3-F3/16z7/8A3-A3/16z7/8d3-d3/16z7/8d3-d3/16z7/8|c12-c3/4z2zz7/32|
A4-A3/4zz7/32c3/2z7/16f3-f3/16z7/8e3-e3/16z7/8|d6-d3/8zz3/4A6-A3/8zz3/4|c3-c3/16z7/8A3-A3/16z7/8^A3/2z7/16A3/2z7/16G3-G3/16z7/8|F12-F3/4z2zz7/32|
F4-F3/4zz7/32F3/2z7/16A3-A3/16z7/8G3/2z7/16F3/2z7/16|G6-G3/8zz3/4G6-G3/8zz3/4|F3-F3/16z7/8A3-A3/16z7/8d3-d3/16z7/8d3-d3/16z7/8|c12-c3/4z2zz7/32|
A4-A3/4zz7/32c3/2z7/16f3-f3/16z7/8e3-e3/16z7/8|d6-d3/8zz3/4A6-A3/8zz3/4|c3-c3/16z7/8A3-A3/16z7/8^A3/2z7/16A3/2z7/16G3-G3/16z7/8|F12-F3/4z2zz7/32|
F4-F3/4zz7/32F3/2z7/16A3-A3/16z7/8G3/2z7/16F3/2z7/16|G6-G3/8zz3/4G6-G3/8zz3/4|F3-F3/16z7/8A3-A3/16z7/8d3-d3/16z7/8d3-d3/16z7/8|c12-c3/4z2zz7/32|
A4-A3/4zz7/32c3/2z7/16f3-f3/16z7/8e3-e3/16z7/8|d6-d3/8zz3/4A6-A3/8zz3/4|c3-c3/16z7/8A3-A3/16z7/8^A3/2z7/16A3/2z7/16G3-G3/16z7/8|F12-F3/4z2zz7/32|
F4-F3/4zz7/32F3/2z7/16A3-A3/16z7/8G3/2z7/16F3/2z7/16|G6-G3/8zz3/4G6-G3/8zz3/4|F3-F3/16z7/8A3-A3/16z7/8d3-d3/16z7/8d3-d3/16z7/8|c12-c3/4z2zz7/32|
A4-A3/4zz7/32c3/2z7/16f3-f3/16z7/8e3-e3/16z7/8|d6-d3/8zz3/4A6-A3/8zz3/4|
L:1/16
M:4/4
K:C clef=F4
V:10
%%MIDI program 19
F,6F,2A,4G,2F,2|G,8G,8|F,4A,4D4D4|C16|
A,6C2F4E4|D8A,8|C4A,4^A,2A,2G,4|F,16|
F,6F,2A,4G,2F,2|G,8G,8|F,4A,4D4D4|C16|
A,6C2F4E4|D8A,8|C4A,4^A,2A,2G,4|F,16|
F,6F,2A,4G,2F,2|G,8G,8|F,4A,4D4D4|C16|
A,6C2F4E4|D8A,8|C4A,4^A,2A,2G,4|F,16|
F,6F,2A,4G,2F,2|G,8G,8|F,4A,4D4D4|C16|
A,6C2F4E4|D8A,8|
L:1/16
M:4/4
K:C clef=F4
V:11
%%MIDI program 19
z3/8[F,-A,-A,-C-]12[F,A,A,C]3/4z2z7/8|z3/8[F,-^A,-D-]6[F,^A,D]3/8zz3/4[G,-C-E-]6[G,CE]3/8zz15/64|z3/8[F,-A,-D-]6[F,A,D]3/8zz3/4[F,-^A,-D-]6[F,^A,D]3/8zz15/64|z3/8[F,-A,-C-]6[F,A,C]3/8zz3/4[G,-C-E-]6[G,CE]3/8zz15/64|
z3/8[F,-A,-C-]6[F,A,C]3/8zz3/4[F,-A,-D-]6[F,A,D]3/8zz15/64|z3/8[F,-^A,-D-]6[F,^A,D]3/8zz3/4[A,-C-E-]6[A,CE]3/8zz15/64|z3/8[F,-A,-C-]6[F,A,C]3/8zz3/4[F,-^A,-D-]3[F,^A,D]3/16z7/8[G,-C-E-]3[G,CE]3/16z7/16|z3/8[F,-A,-C-]12[F,A,C]3/4z2z7/8|
z3/8[F,-A,-A,-C-]12[F,A,A,C]3/4z2z7/8|z3/8[F,-^A,-D-]6[F,^A,D]3/8zz3/4[G,-C-E-]6[G,CE]3/8zz15/64|z3/8[F,-A,-D-]6[F,A,D]3/8zz3/4[F,-^A,-D-]6[F,^A,D]3/8zz15/64|z3/8[F,-A,-C-]6[F,A,C]3/8zz3/4[G,-C-E-]6[G,CE]3/8zz15/64|
z3/8[F,-A,-C-]6[F,A,C]3/8zz3/4[F,-A,-D-]6[F,A,D]3/8zz15/64|z3/8[F,-^A,-D-]6[F,^A,D]3/8zz3/4[A,-C-E-]6[A,CE]3/8zz15/64|z3/8[F,-A,-C-]6[F,A,C]3/8zz3/4[F,-^A,-D-]3[F,^A,D]3/16z7/8[G,-C-E-]3[G,CE]3/16z7/16|z3/8[F,-A,-C-]12[F,A,C]3/4z2z7/8|
z3/8[F,-A,-A,-C-]12[F,A,A,C]3/4z2z7/8|z3/8[F,-^A,-D-]6[F,^A,D]3/8zz3/4[G,-C-E-]6[G,CE]3/8zz15/64|z3/8[F,-A,-D-]6[F,A,D]3/8zz3/4[F,-^A,-D-]6[F,^A,D]3/8zz15/64|z3/8[F,-A,-C-]6[F,A,C]3/8zz3/4[G,-C-E-]6[G,CE]3/8zz15/64|
z3/8[F,-A,-C-]6[F,A,C]3/8zz3/4[F,-A,-D-]6[F,A,D]3/8zz15/64|z3/8[F,-^A,-D-]6[F,^A,D]3/8zz3/4[A,-C-E-]6[A,CE]3/8zz15/64|z3/8[F,-A,-C-]6[F,A,C]3/8zz3/4[F,-^A,-D-]3[F,^A,D]3/16z7/8[G,-C-E-]3[G,CE]3/16z7/16|z3/8[F,-A,-C-]12[F,A,C]3/4z2z7/8|
z3/8[F,-A,-A,-C-]12[F,A,A,C]3/4z2z7/8|z3/8[F,-^A,-D-]6[F,^A,D]3/8zz3/4[G,-C-E-]6[G,CE]3/8zz15/64|z3/8[F,-A,-D-]6[F,A,D]3/8zz3/4[F,-^A,-D-]6[F,^A,D]3/8zz15/64|z3/8[F,-A,-C-]6[F,A,C]3/8zz3/4[G,-C-E-]6[G,CE]3/8zz15/64|
z3/8[F,-A,-C-]6[F,A,C]3/8zz3/4[F,-A,-D-]6[F,A,D]3/8zz15/64|z3/8[F,-^A,-D-]6[F,^A,D]3/8zz3/4[A,-C-E-]6[A,CE]3/8zz15/64|
L:1/16
M:4/4
K:C clef=F4
V:12
%%MIDI program 49
z3/4[F,-A,-A,-C-]15[F,-A,-A,-C-]3/8|[F,A,A,C]3/4[F,-^A,-D-]124/16[F,^A,D]/8[G,-C-E-]7[G,-C-E-]3/8|[G,CE]3/4[F,-A,-D-]124/16[F,A,D]/8[F,-^A,-D-]7[F,-^A,-D-]3/8|[F,^A,D]3/4[F,-A,-C-]124/16[F,A,C]/8[G,-C-E-]7[G,-C-E-]3/8|
[G,CE]3/4[F,-A,-C-]124/16[F,A,C]/8[F,-A,-D-]7[F,-A,-D-]3/8|[F,A,D]3/4[F,-^A,-D-]124/16[F,^A,D]/8[A,-C-E-]7[A,-C-E-]3/8|[A,CE]3/4[F,-A,-C-]124/16[F,A,C]/8[F,^A,D]4[G,-C-E-]3[G,-C-E-]3/8|[G,CE]3/4[F,-A,-C-]15[F,-A,-C-]/4|
[F,A,C]3/4[F,-A,-A,-C-]15[F,-A,-A,-C-]/4|[F,A,A,C]3/4[F,-^A,-D-]124/16[F,^A,D]/8[G,-C-E-]7[G,-C-E-]3/8|[G,CE]3/4[F,-A,-D-]124/16[F,A,D]/8[F,-^A,-D-]7[F,-^A,-D-]3/8|[F,^A,D]3/4[F,-A,-C-]124/16[F,A,C]/8[G,-C-E-]7[G,-C-E-]3/8|
[G,CE]3/4[F,-A,-C-]124/16[F,A,C]/8[F,-A,-D-]7[F,-A,-D-]3/8|[F,A,D]3/4[F,-^A,-D-]124/16[F,^A,D]/8[A,-C-E-]7[A,-C-E-]3/8|[A,CE]3/4[F,-A,-C-]124/16[F,A,C]/8[F,^A,D]4[G,-C-E-]3[G,-C-E-]3/8|[G,CE]3/4[F,-A,-C-]15[F,-A,-C-]/4|
[F,A,C]3/4[F,-A,-A,-C-]15[F,-A,-A,-C-]/4|[F,A,A,C]3/4[F,-^A,-D-]124/16[F,^A,D]/8[G,-C-E-]7[G,-C-E-]3/8|[G,CE]3/4[F,-A,-D-]124/16[F,A,D]/8[F,-^A,-D-]7[F,-^A,-D-]3/8|[F,^A,D]3/4[F,-A,-C-]124/16[F,A,C]/8[G,-C-E-]7[G,-C-E-]3/8|
[G,CE]3/4[F,-A,-C-]124/16[F,A,C]/8[F,-A,-D-]7[F,-A,-D-]3/8|[F,A,D]3/4[F,-^A,-D-]124/16[F,^A,D]/8[A,-C-E-]7[A,-C-E-]3/8|[A,CE]3/4[F,-A,-C-]124/16[F,A,C]/8[F,^A,D]4[G,-C-E-]3[G,-C-E-]3/8|[G,CE]3/4[F,-A,-C-]15[F,-A,-C-]/4|
[F,A,C]3/4[F,-A,-A,-C-]15[F,-A,-A,-C-]/4|[F,A,A,C]3/4[F,-^A,-D-]124/16[F,^A,D]/8[G,-C-E-]7[G,-C-E-]3/8|[G,CE]3/4[F,-A,-D-]124/16[F,A,D]/8[F,-^A,-D-]7[F,-^A,-D-]3/8|[F,^A,D]3/4[F,-A,-C-]124/16[F,A,C]/8[G,-C-E-]7[G,-C-E-]3/8|
[G,CE]3/4[F,-A,-C-]124/16[F,A,C]/8[F,-A,-D-]7[F,-A,-D-]3/8|[F,A,D]3/4[F,-^A,-D-]124/16[F,^A,D]/8[A,-C-E-]7[A,-C-E-]3/8|[A,CE]7/8
L:1/16
M:4/4
K:C clef=G2
V:13
%%MIDI program 52
z/2F6F2A4G2F3/2-|F/2G8G60/8-|G/2F4A4d4d14/4-|d/2c248/16-|
c/2A6c2f4e14/4-|e/2d8A60/8-|A/2c4A4^A2A2G14/4-|G/2F248/16-|
F/2F6F2A4G2F3/2-|F/2G8G60/8-|G/2F4A4d4d14/4-|d/2c248/16-|
c/2A6c2f4e14/4-|e/2d8A60/8-|A/2c4A4^A2A2G14/4-|G/2F248/16-|
F/2F6F2A4G2F3/2-|F/2G8G60/8-|G/2F4A4d4d14/4-|d/2c248/16-|
c/2A6c2f4e14/4-|e/2d8A60/8-|A/2c4A4^A2A2G14/4-|G/2F248/16-|
F/2F6F2A4G2F3/2-|F/2G8G60/8-|G/2F4A4d4d14/4-|d/2c248/16-|
c/2A6c2f4e14/4-|e/2d8A60/8-|A3/4
L:1/16
M:4/4
K:C clef=F4
V:14
%%MIDI program 49
zz/8[F,-A,-A,-C-]14[F,-A,-A,-C-]7/8|[F,A,A,C][F,-^A,-D-]8[F,^A,D]/8[G,-C-E-]6[G,-C-E-]7/8|[G,CE][F,-A,-D-]8[F,A,D]/8[F,-^A,-D-]6[F,-^A,-D-]7/8|[F,^A,D][F,-A,-C-]8[F,A,C]/8[G,-C-E-]6[G,-C-E-]7/8|
[G,CE][F,-A,-C-]8[F,A,C]/8[F,-A,-D-]6[F,-A,-D-]7/8|[F,A,D][F,-^A,-D-]8[F,^A,D]/8[A,-C-E-]6[A,-C-E-]7/8|[A,CE][F,-A,-C-]8[F,A,C]/8[F,^A,D]4[G,-C-E-]2[G,-C-E-]7/8|[G,CE][F,-A,-C-]15|
[F,A,C][F,-A,-A,-C-]15|[F,A,A,C][F,-^A,-D-]8[F,^A,D]/8[G,-C-E-]6[G,-C-E-]7/8|[G,CE][F,-A,-D-]8[F,A,D]/8[F,-^A,-D-]6[F,-^A,-D-]7/8|[F,^A,D][F,-A,-C-]8[F,A,C]/8[G,-C-E-]6[G,-C-E-]7/8|
[G,CE][F,-A,-C-]8[F,A,C]/8[F,-A,-D-]6[F,-A,-D-]7/8|[F,A,D][F,-^A,-D-]8[F,^A,D]/8[A,-C-E-]6[A,-C-E-]7/8|[A,CE][F,-A,-C-]8[F,A,C]/8[F,^A,D]4[G,-C-E-]2[G,-C-E-]7/8|[G,CE][F,-A,-C-]15|
[F,A,C][F,-A,-A,-C-]15|[F,A,A,C][F,-^A,-D-]8[F,^A,D]/8[G,-C-E-]6[G,-C-E-]7/8|[G,CE][F,-A,-D-]8[F,A,D]/8[F,-^A,-D-]6[F,-^A,-D-]7/8|[F,^A,D][F,-A,-C-]8[F,A,C]/8[G,-C-E-]6[G,-C-E-]7/8|
[G,CE][F,-A,-C-]8[F,A,C]/8[F,-A,-D-]6[F,-A,-D-]7/8|[F,A,D][F,-^A,-D-]8[F,^A,D]/8[A,-C-E-]6[A,-C-E-]7/8|[A,CE][F,-A,-C-]8[F,A,C]/8[F,^A,D]4[G,-C-E-]2[G,-C-E-]7/8|[G,CE][F,-A,-C-]15|
[F,A,C][F,-A,-A,-C-]15|[F,A,A,C][F,-^A,-D-]8[F,^A,D]/8[G,-C-E-]6[G,-C-E-]7/8|[G,CE][F,-A,-D-]8[F,A,D]/8[F,-^A,-D-]6[F,-^A,-D-]7/8|[F,^A,D][F,-A,-C-]8[F,A,C]/8[G,-C-E-]6[G,-C-E-]7/8|
[G,CE][F,-A,-C-]8[F,A,C]/8[F,-A,-D-]6[F,-A,-D-]7/8|[F,A,D][F,-^A,-D-]8[F,^A,D]/8[A,-C-E-]6[A,-C-E-]7/8|[A,CE]
L:1/16
M:4/4
K:C clef=F4
V:15
%%MIDI program 16
z7/8[F,,,-A,,,-A,,,-C,,-]15[F,,,-A,,,-A,,,-C,,-]/8|[F,,,A,,,A,,,C,,]7/8[F,,,^A,,,D,,]8[G,,,-C,,-E,,-]7[G,,,-C,,-E,,-]/8|[G,,,C,,E,,]7/8[F,,,A,,,D,,]8[F,,,-^A,,,-D,,-]7[F,,,-^A,,,-D,,-]/8|[F,,,^A,,,D,,]7/8[F,,,A,,,C,,]8[G,,,-C,,-E,,-]7[G,,,-C,,-E,,-]/8|
[G,,,C,,E,,]7/8[F,,,A,,,C,,]8[F,,,-A,,,-D,,-]7[F,,,-A,,,-D,,-]/8|[F,,,A,,,D,,]7/8[F,,,^A,,,D,,]8[A,,,-C,,-E,,-]7[A,,,-C,,-E,,-]/8|[A,,,C,,E,,]7/8[F,,,A,,,C,,]8[F,,,^A,,,D,,]4[G,,,-C,,-E,,-]3[G,,,-C,,-E,,-]/8|[G,,,C,,E,,]7/8[F,,,-A,,,-C,,-]15[F,,,-A,,,-C,,-]/8|
[F,,,A,,,C,,]7/8[F,,,-A,,,-A,,,-C,,-]15[F,,,-A,,,-A,,,-C,,-]/8|[F,,,A,,,A,,,C,,]7/8[F,,,^A,,,D,,]8[G,,,-C,,-E,,-]7[G,,,-C,,-E,,-]/8|[G,,,C,,E,,]7/8[F,,,A,,,D,,]8[F,,,-^A,,,-D,,-]7[F,,,-^A,,,-D,,-]/8|[F,,,^A,,,D,,]7/8[F,,,A,,,C,,]8[G,,,-C,,-E,,-]7[G,,,-C,,-E,,-]/8|
[G,,,C,,E,,]7/8[F,,,A,,,C,,]8[F,,,-A,,,-D,,-]7[F,,,-A,,,-D,,-]/8|[F,,,A,,,D,,]7/8[F,,,^A,,,D,,]8[A,,,-C,,-E,,-]7[A,,,-C,,-E,,-]/8|[A,,,C,,E,,]7/8[F,,,A,,,C,,]8[F,,,^A,,,D,,]4[G,,,-C,,-E,,-]3[G,,,-C,,-E,,-]/8|[G,,,C,,E,,]7/8[F,,,-A,,,-C,,-]15[F,,,-A,,,-C,,-]/8|
[F,,,A,,,C,,]7/8[F,,,-A,,,-A,,,-C,,-]15[F,,,-A,,,-A,,,-C,,-]/8|[F,,,A,,,A,,,C,,]7/8[F,,,^A,,,D,,]8[G,,,-C,,-E,,-]7[G,,,-C,,-E,,-]/8|[G,,,C,,E,,]7/8[F,,,A,,,D,,]8[F,,,-^A,,,-D,,-]7[F,,,-^A,,,-D,,-]/8|[F,,,^A,,,D,,]7/8[F,,,A,,,C,,]8[G,,,-C,,-E,,-]7[G,,,-C,,-E,,-]/8|
[G,,,C,,E,,]7/8[F,,,A,,,C,,]8[F,,,-A,,,-D,,-]7[F,,,-A,,,-D,,-]/8|[F,,,A,,,D,,]7/8[F,,,^A,,,D,,]8[A,,,-C,,-E,,-]7[A,,,-C,,-E,,-]/8|[A,,,C,,E,,]7/8[F,,,A,,,C,,]8[F,,,^A,,,D,,]4[G,,,-C,,-E,,-]3[G,,,-C,,-E,,-]/8|[G,,,C,,E,,]7/8[F,,,-A,,,-C,,-]15[F,,,-A,,,-C,,-]/8|
[F,,,A,,,C,,]7/8[F,,,-A,,,-A,,,-C,,-]15[F,,,-A,,,-A,,,-C,,-]/8|[F,,,A,,,A,,,C,,]7/8[F,,,^A,,,D,,]8[G,,,-C,,-E,,-]7[G,,,-C,,-E,,-]/8|[G,,,C,,E,,]7/8[F,,,A,,,D,,]8[F,,,-^A,,,-D,,-]7[F,,,-^A,,,-D,,-]/8|[F,,,^A,,,D,,]7/8[F,,,A,,,C,,]8[G,,,-C,,-E,,-]7[G,,,-C,,-E,,-]/8|
[G,,,C,,E,,]7/8[F,,,A,,,C,,]8[F,,,-A,,,-D,,-]7[F,,,-A,,,-D,,-]/8|[F,,,A,,,D,,]7/8[F,,,^A,,,D,,]8[A,,,-C,,-E,,-]7[A,,,-C,,-E,,-]/8|[A,,,C,,E,,]
Q:1/4=68
L:1/16
M:4/4
K:C clef=G2
V:1
%%MIDI program 19
c4A4^A2A2G4|
L:1/16
M:4/4
K:C clef=F4
V:2
%%MIDI program 19
[F,A,C]8[F,^A,D]4[G,CE]4|
L:1/16
M:4/4
K:C clef=G2
V:3
%%MIDI program 56
c3-c3/16z7/8A3-A3/16z7/8^A3/2z7/16A3/2z7/16G3-G3/16z7/8|
L:1/16
M:4/4
K:C clef=G2
V:4
%%MIDI program 48
c3-c3/16z7/8A3-A3/16z7/8^A3/2z7/16A3/2z7/16G3-G3/16z7/8|
L:1/16
M:4/4
K:C clef=F4
V:5
%%MIDI program 60
[F,A,C]8[F,^A,D]4[G,CE]4|
L:1/16
M:4/4
K:C clef=G2
V:6
%%MIDI program 49
z/2c3-c3/16z7/8A3-A3/16z7/8^A3/2z7/16A3/2z7/16G3-G3/16z3/8|
L:1/16
M:4/4
K:C clef=G2
V:7
%%MIDI program 102
z3/4c3-c3/16z7/8A3-A3/16z7/8^A3/2z7/16A3/2z7/16G3-G3/16z3/16|
L:1/16
M:4/4
K:C clef=G2
V:8
%%MIDI program 52
c4A4^A2A2G4|
L:1/16
M:4/4
K:C clef=G2
V:9
%%MIDI program 88
c3-c3/16z7/8A3-A3/16z7/8^A3/2z7/16A3/2z7/16G3-G3/16z7/8|
L:1/16
M:4/4
K:C clef=F4
V:10
%%MIDI program 19
C4A,4^A,2A,2G,4|
L:1/16
M:4/4
K:C clef=F4
V:11
%%MIDI program 19
z3/8[F,-A,-C-]6[F,A,C]3/8zz3/4[F,-^A,-D-]3[F,^A,D]3/16z7/8[G,-C-E-]3[G,CE]3/16z7/16|
L:1/16
M:4/4
K:C clef=F4
V:12
%%MIDI program 49
z3/4[F,A,C]8[F,^A,D]4[G,-C-E-]3[G,-C-E-]3/8|[G,CE]7/8
L:1/16
M:4/4
K:C clef=G2
V:13
%%MIDI program 52
z/2c4A4^A2A2G14/4-|G3/4
L:1/16
M:4/4
K:C clef=F4
V:14
%%MIDI program 49
zz/8[F,A,C]8[F,^A,D]4[G,-C-E-]2[G,-C-E-]7/8|[G,CE]
L:1/16
M:4/4
K:C clef=F4
V:15
%%MIDI program 16
z7/8[F,,,A,,,C,,]8[F,,,^A,,,D,,]4[G,,,-C,,-E,,-]3[G,,,-C,,-E,,-]/8|[G,,,C,,E,,]
Q:1/4=52
L:1/16
M:4/4
K:C clef=G2
V:1
%%MIDI program 19
F12-F3/4zz/8
L:1/16
M:4/4
K:C clef=F4
V:2
%%MIDI program 19
[F,-A,-C-]12[F,A,C]3/4zz/8
L:1/16
M:4/4
K:C clef=G2
V:3
%%MIDI program 56
F12-F3/4zz/8
L:1/16
M:4/4
K:C clef=G2
V:4
%%MIDI program 48
F12-F3/4zz/8
L:1/16
M:4/4
K:C clef=F4
V:5
%%MIDI program 60
[F,-A,-C-]12[F,A,C]3/4zz/8
L:1/16
M:4/4
K:C clef=G2
V:6
%%MIDI program 49
z/2F12-F3/4z3/4
L:1/16
M:4/4
K:C clef=G2
V:7
%%MIDI program 102
z3/4F12-F3/4z/2
L:1/16
M:4/4
K:C clef=G2
V:8
%%MIDI program 52
F12-F3/4zz/8
L:1/16
M:4/4
K:C clef=G2
V:9
%%MIDI program 88
F12-F3/4zz/8
L:1/16
M:4/4
K:C clef=F4
V:10
%%MIDI program 19
F,12-F,3/4zz/8
L:1/16
M:4/4
K:C clef=F4
V:11
%%MIDI program 19
z3/8[F,-A,-C-]12[F,A,C]3/4z3/4
L:1/16
M:4/4
K:C clef=F4
V:12
%%MIDI program 49
z3/4[F,-A,-C-]12[F,A,C]3/4z/2
L:1/16
M:4/4
K:C clef=G2
V:13
%%MIDI program 52
z/2F12-F3/4z3/4
L:1/16
M:4/4
K:C clef=F4
V:14
%%MIDI program 49
zz/8[F,-A,-C-]12[F,A,C]3/4
L:1/16
M:4/4
K:C clef=F4
V:15
%%MIDI program 16
z7/8[F,,,-A,,,-C,,-]12[F,,,A,,,C,,]3/4z/4


